public/assets/images/law.svg

<svg xmlns:xlink="http://www.w3.org/1999/xlink" xmlns="http://www.w3.org/2000/svg" width="30" viewBox="0 0 30 29" fill="none" class="text-icon__icon" height="29" ><path d="M15.4893 2.93899L25.5881 8.54446C26.0774 8.81139 26.3889 9.30075 26.3889 9.83461C26.3889 10.6799 25.6771 11.3472 24.8318 11.3472H5.12367C4.2784 11.3472 3.61108 10.6799 3.61108 9.83461C3.61108 9.30075 3.87801 8.81139 4.36738 8.54446L14.4661 2.93899C14.7775 2.76104 15.1779 2.76104 15.4893 2.93899ZM13.7543 9.21178C13.6208 9.03383 13.5764 8.7669 13.5764 8.49997C13.5764 7.74368 14.1992 7.07636 15 7.07636C15.7563 7.07636 16.4236 7.74368 16.4236 8.49997C16.4236 8.7669 16.3346 9.03383 16.2011 9.21178H22.4294L15 5.1189L7.52601 9.21178H13.7543ZM6.45831 12.7708H8.59372V19.8889H11.4409V12.7708H13.5764V19.8889H16.4236V12.7708H18.559V19.8889H21.4062V12.7708H23.5416V19.8889H23.8975C24.4759 19.8889 24.9652 20.3782 24.9652 20.9566C24.9652 21.5794 24.4759 22.0243 23.8975 22.0243H6.45831C5.83548 22.0243 5.3906 21.5794 5.3906 20.9566C5.3906 20.3782 5.83548 19.8889 6.45831 19.8889V12.7708ZM5.0347 23.4479H25.3212C25.8995 23.4479 26.3889 23.9373 26.3889 24.5156C26.3889 25.1384 25.8995 25.5833 25.3212 25.5833H5.0347C4.41187 25.5833 3.96699 25.1384 3.96699 24.5156C3.96699 23.9373 4.41187 23.4479 5.0347 23.4479Z" fill="#3D4148"></path></svg>

<svg xmlns="http://www.w3.org/2000/svg" width="30" fill="none" class="text-icon__icon" height="29"><path d="m15.49 2.939 10.098 5.605c.49.267.8.757.8 1.29 0 .846-.71 1.513-1.556 1.513H5.124A1.5 1.5 0 0 1 3.61 9.835c0-.534.267-1.024.756-1.29l10.1-5.606a1.047 1.047 0 0 1 1.022 0Zm-1.736 6.273c-.133-.178-.178-.445-.178-.712 0-.756.623-1.424 1.424-1.424.756 0 1.424.668 1.424 1.424 0 .267-.09.534-.223.712h6.228L15 5.119 7.526 9.212h6.228ZM6.458 12.77h2.136v7.118h2.847V12.77h2.135v7.118h2.848V12.77h2.135v7.118h2.847V12.77h2.136v7.118h.355c.579 0 1.068.49 1.068 1.068 0 .622-.49 1.067-1.067 1.067H6.457c-.623 0-1.067-.445-1.067-1.067 0-.579.444-1.068 1.067-1.068V12.77ZM5.035 23.448H25.32c.578 0 1.068.49 1.068 1.068 0 .622-.49 1.067-1.068 1.067H5.035c-.623 0-1.068-.445-1.068-1.067 0-.579.445-1.068 1.068-1.068Z" fill="#3D4148"/></svg>
